X:402
T: Braes of Moran
N: O'Farrell's Pocket Companion v.4 (Sky ed. p.172)
M: C
L: 1/8
R: hornpipe
Q: 240
K: D
z| D>EFA d>efe| dBAF BEEF|  D>EFA d>efe| dBAG/F/ ADD :|
A| d>efg abaf| ddfa beef| defe dBAF| A2 B/A/G/F/ ADD :|
